X: 1
T: Red Haired Mary
M: 2/4
L: 1/8
R: polka
K: Cmaj
G>A G>A|cc cd|ee e/f/e/d/|cG A2|
G>A G>A|cc cd|eg g/a/g/f/|ed c2|
d<e gg|e<f aa|eg d>e|dc A2|
G>A G>A|cc cd|eg g/a/g/f/|ed c2|
